!!!OTL: No_167_Come,_Let_Us_Drink.krn
!!!REG: Great_Lakes
!!!LANG: Non-Tone
!!!LING_GROUP: Algonquin
!!!SOCIAL_FUNCTION: love songs
**kern
*staff1
=1-
*clefF4
*k[b-e-]
*M2/4
4d\
8d\L
8c\J
=2
4.G\
8G\
=3||
*M3/4
8G\L
16G\L
16G\JJ
8G\L
8G\J
8.D\L
16c\Jk
=4
4c\
16c\LL
16G\
16G\
16F\JJ
8D\L
8D\J
=5||
*M2/4
4.C/
8C/
=6
4G\
12B-\L
12G\
12F\J
=7
(4D\
8.C/L)
16BBn/Jk
=8
4C/
12D/L
12C/
12BB-/J
=9
4.C/
8d\
=10||
*M3/4
4d\
8d\L
8c\J
12B-\L
12c\
12B-\J
=11||
*M2/4
4.G\
8G\
=12||
*M3/4
4G\
8G\L
8F\J
8D\L
16F\L
16F\JJ
=13||
*M2/4
4.D\
8D\
=14||
*M3/4
8.C/L
16BB-/Jk
4GG/
12AA/L
12AA/
12BB-/J
=15
2GG/
4r
==
*-
